!!!Rep U0218
!!!Isim(Name): Gönül Der ki Bir Kuş Olup Uçam Havaya
!!!Yore(Region): Sivas - Zara
!!!Makam: Hüseyni
!!!Arizalar(Accidentals): b-2
!!!Usul: Various
**kern	**Dcent
*staff1	*.
=1-	=1-
*clefG2	*.
*k[b-]	*.
*MX/X	*.
8ff#	0
4gg	0
4gg	0
4gg	0
4gg	0
8gg	0
8ff#	0
4gg	0
8gg	0
4gg	0
=2	=2
!!linebreak:default
8ff	0
8gg	0
8ff	0
16ff	0
16gg	0
16ff	0
16gg	0
16ff	0
16gg	0
16ff	0
16gg	0
8.ff;	0
16ee	0
16ffn	0
8.ee;	0
8ee	0
8ff	0
8ee	0
8.ee;	0
16dd	0
16ee	0
8.dd;	0
=3	=3
!!linebreak:default
8dd	0
8ee	0
8dd	0
4dd;	0
32cc	0
32b	0
8.a;	0
4ee	0
8ee	0
8ee	0
8dd	0
8ee	0
8ee	0
8ee	0
8dd	0
=4	=4
!!linebreak:default
4ee	0
8ee	0
8ee	0
8dd	0
8dd	0
8cc	0
8ee	0
8ee	0
8dd	0
4dd;	0
32cc	0
32b-	50
8.a;	0
=5	=5
!!linebreak:default
8dd	0
8dd	0
8b-	50
4cc;	0
16cc	0
16dd	0
4b-	50
8b-;	50
4r;	.
8cc	0
8dd	0
8dd	0
8dd	0
16.dd	0
32cc	0
8dd	0
8dd	0
8dd	0
=6	=6
!!linebreak:default
8.cc	0
16dd	0
8cc	0
8dd	0
8b-	50
8.cc;	0
16dd	0
16cc	0
16cc	0
8.b-	50
8cc	0
8cc	0
8b-	50
8.b-;	50
16a	0
16b-	50
8.a	0
=7	=7
!!linebreak:default
8a	0
8b-	50
8a	0
4a;	0
16.g	0
32f#	0
8g;	0
8g	0
8g	0
8cc	0
8.cc	0
16b-	50
8cc	0
8.cc	0
16b-	50
8cc	0
8b-	50
8cc	0
16cc	0
16b-	50
=8	=8
!!linebreak:default
4a	0
8cc	0
8b-	50
8cc	0
8b-	50
8.b-;	50
16a	0
16b-	50
8.a;	0
8a	0
8b-	50
8a	0
4a;	0
=	=
*-	*-
!! Uzun Hava Humdrum Bilgi Bankasi (Uzun Hava Humdrum Database)
!! 
!! Sertan Senturk, Parag Chordia & Erdal Tugcular
!! Georgia Tech Center for Music Technology, 2011
